X:294
T: In dem Wirtshaus schne Manier (3-96), S. 265
N: P1069
O: Lothringen
S: PINCK, Louis: Verklingende Weisen, Bd3, Metz 1933]
R: Trinklied]
M: 2/2
L: 1/8
K: F
 | F2F2E2C2 | F2GGA4 |
A2c2A2F2 | A2G2F4 |
A2G2A2F2 | c3BA2G2 |
A2G2A2F2 | c3B2AG2 |
F2F2E2C2 | F2G2A4 |
A2c2A2F2 | A2G2F4

